img/svg/noun_fashion.svg

<?xml version="1.0" encoding="UTF-8"?>
<svg width="29px" height="60px" viewBox="0 0 29 60" version="1.1" xmlns="http://www.w3.org/2000/svg" xmlns:xlink="http://www.w3.org/1999/xlink">
    <!-- Generator: Sketch 52.6 (67491) - http://www.bohemiancoding.com/sketch -->
    <title>noun_fashion_1226100_000000</title>
    <desc>Created with Sketch.</desc>
    <g id="Quentia-Index-1.5" stroke="none" stroke-width="1" fill="none" fill-rule="evenodd">
        <g id="iPhone-8" transform="translate(-171.000000, -2329.000000)" fill="#F2DAC3" fill-rule="nonzero">
            <g id="Group-9" transform="translate(96.000000, 2329.000000)">
                <g id="Group-2">
                    <g id="noun_fashion_1226100_000000" transform="translate(75.000000, 0.000000)">
                        <path d="M21.5986227,39 L5.25140282,39 C4.80147934,39 4.50153035,38.7034221 4.50153035,38.2585551 L4.50153035,21.6501901 C4.50153035,21.3536122 4.65150485,21.1311787 4.95145383,20.9828897 C6.60117327,20.2414449 7.65099473,18.6102662 7.65099473,16.8307985 C7.65099473,15.0513308 6.60117327,13.4201521 4.95145383,12.6787072 C4.65150485,12.5304183 4.50153035,12.3079848 4.50153035,12.0114068 L4.50153035,6.07984791 C4.50153035,6.00570342 4.4265431,4.67110266 5.32639007,3.63307985 C5.92628805,2.96577947 6.82613501,2.66920152 7.95094372,2.66920152 C8.62582894,2.66920152 9.15073967,2.52091255 9.52567591,2.15019011 C10.0505866,1.63117871 10.0505866,0.741444867 10.0505866,0.741444867 C10.0505866,0.519011407 10.1255739,0.370722433 10.2755484,0.22243346 C10.4255229,0.0741444867 10.5754974,0 10.8004591,0 L16.1995409,0 C16.4245026,0 16.5744771,0.0741444867 16.7244516,0.22243346 C16.8744261,0.370722433 16.9494134,0.593155894 16.9494134,0.741444867 C16.9494134,0.741444867 16.9494134,1.55703422 17.4743241,2.15019011 C17.7742731,2.52091255 18.2991838,2.66920152 19.0490563,2.66920152 C20.173865,2.66920152 21.073712,3.03992395 21.6736099,3.63307985 C22.5734569,4.67110266 22.4984696,6.00570342 22.4984696,6.1539924 L22.4984696,12.0114068 C22.4984696,12.3079848 22.3484952,12.5304183 22.0485462,12.6787072 C20.3988267,13.4201521 19.3490053,15.0513308 19.3490053,16.8307985 C19.3490053,18.6102662 20.3988267,20.2414449 22.0485462,20.9828897 C22.3484952,21.1311787 22.4984696,21.3536122 22.4984696,21.6501901 L22.4984696,38.2585551 C22.4984696,38.4809886 22.4234824,38.6292776 22.2735079,38.7775665 C22.1235334,38.9258555 21.8235844,39 21.5986227,39 Z M6.00127529,37.5171103 L20.9237375,37.5171103 L20.9237375,22.095057 C18.974069,21.0570342 17.7742731,18.9809886 17.7742731,16.8307985 C17.7742731,14.6064639 18.974069,12.6045627 20.9237375,11.5665399 L20.9237375,6.1539924 C20.9237375,6.07984791 20.9987247,5.26425856 20.473814,4.74524715 C20.173865,4.37452471 19.6489543,4.22623574 18.974069,4.22623574 C17.8492603,4.22623574 16.9494134,3.85551331 16.3495154,3.26235741 C15.8246047,2.74334601 15.5996429,2.07604563 15.5246557,1.55703422 L11.5503316,1.55703422 C11.4753443,2.07604563 11.2503826,2.66920152 10.7254719,3.26235741 C10.1255739,3.92965779 9.22572692,4.22623574 8.10091821,4.22623574 C7.42603299,4.22623574 6.90112226,4.37452471 6.60117327,4.74524715 C6.07626254,5.26425856 6.15124979,6.07984791 6.15124979,6.1539924 L6.15124979,11.6406844 C8.10091821,12.6787072 9.30071416,14.7547529 9.30071416,16.904943 C9.30071416,19.1292776 8.10091821,21.1311787 6.15124979,22.1692015 L6.15124979,37.5171103 L6.00127529,37.5171103 Z" id="Shape"></path>
                        <path d="M12.75,58.5 C12.3,58.5 12,58.1934307 12,57.7335766 L12,38.2664234 C12,37.8065693 12.3,37.5 12.75,37.5 C13.2,37.5 13.5,37.8065693 13.5,38.2664234 L13.5,57.6569343 C13.5,58.1167883 13.2,58.5 12.75,58.5 Z" id="Shape"></path>
                        <path d="M26.4109948,60 L2.08900524,60 C0.969895288,60 0,58.9913793 0,57.75 C0,56.5086207 0.969895288,55.5 2.08900524,55.5 L26.4109948,55.5 C27.5301047,55.5 28.5,56.5086207 28.5,57.75 C28.5,58.9913793 27.5301047,60 26.4109948,60 Z M2.08900524,57.1293103 C1.79057592,57.1293103 1.4921466,57.4396552 1.4921466,57.8275862 C1.4921466,58.2155172 1.79057592,58.5258621 2.08900524,58.5258621 L26.4109948,58.5258621 C26.7094241,58.5258621 27.0078534,58.2155172 27.0078534,57.8275862 C27.0078534,57.4396552 26.7094241,57.1293103 26.4109948,57.1293103 L2.08900524,57.1293103 Z" id="Shape"></path>
                        <path d="M9.02912621,13.5 C9.02912621,13.5 9.02912621,13.5 9.02912621,13.5 C8.21359223,13.5 7.68932039,12.3387097 7.63106796,12.2096774 C7.45631068,11.8225806 7.45631068,11.1774194 7.63106796,10.7903226 C7.80582524,10.4032258 8.09708738,10.4032258 8.27184466,10.7903226 C8.27184466,10.7903226 8.62135922,11.5645161 9.02912621,11.5645161 C9.02912621,11.5645161 9.02912621,11.5645161 9.02912621,11.5645161 C9.26213592,11.5645161 9.49514563,11.3064516 9.72815534,10.7903226 C9.90291262,10.4032258 10.1941748,10.4032258 10.368932,10.7903226 C10.5436893,11.1774194 10.5436893,11.8225806 10.368932,12.2096774 C9.96116505,12.983871 9.49514563,13.5 9.02912621,13.5 Z" id="Shape"></path>
                        <path d="M17.9708738,13.5 C17.5048544,13.5 17.038835,13.1129032 16.631068,12.2096774 C16.4563107,11.8225806 16.4563107,11.1774194 16.631068,10.7903226 C16.8058252,10.4032258 17.0970874,10.4032258 17.2718447,10.7903226 C17.5048544,11.3064516 17.7378641,11.5645161 17.9708738,11.5645161 C17.9708738,11.5645161 17.9708738,11.5645161 17.9708738,11.5645161 C18.3786408,11.5645161 18.7281553,10.7903226 18.7281553,10.7903226 C18.9029126,10.4032258 19.1941748,10.4032258 19.368932,10.7903226 C19.5436893,11.1774194 19.5436893,11.8225806 19.368932,12.2096774 C19.3106796,12.2096774 18.7864078,13.3709677 17.9708738,13.5 C17.9708738,13.5 17.9708738,13.5 17.9708738,13.5 Z" id="Shape"></path>
                    </g>
                </g>
            </g>
        </g>
    </g>
</svg>

<svg width="29" height="60" viewBox="0 0 29 60" xmlns="http://www.w3.org/2000/svg"><title>noun_fashion_1226100_000000</title><g fill="#F2DAC3" fill-rule="nonzero"><path d="M21.599 39H5.25c-.45 0-.75-.297-.75-.741V21.65c0-.296.15-.519.45-.667a4.56 4.56 0 0 0 2.7-4.152 4.56 4.56 0 0 0-2.7-4.152c-.3-.149-.45-.371-.45-.668V6.08c0-.074-.074-1.409.825-2.447.6-.667 1.5-.964 2.625-.964.675 0 1.2-.148 1.575-.519.525-.519.525-1.409.525-1.409a.67.67 0 0 1 .225-.519c.15-.148.3-.222.524-.222h5.4c.225 0 .374.074.524.222.15.149.225.371.225.52 0 0 0 .815.525 1.408.3.37.825.52 1.575.52 1.125 0 2.025.37 2.625.963.9 1.038.824 2.373.824 2.521v5.857c0 .297-.15.52-.45.668a4.56 4.56 0 0 0-2.699 4.152 4.56 4.56 0 0 0 2.7 4.152c.3.148.45.37.45.667V38.26a.67.67 0 0 1-.225.519c-.15.148-.45.222-.675.222zM6 37.517h14.923V22.095c-1.95-1.038-3.15-3.114-3.15-5.264 0-2.225 1.2-4.226 3.15-5.264V6.154c0-.074.075-.89-.45-1.409-.3-.37-.825-.519-1.5-.519-1.125 0-2.025-.37-2.624-.964-.525-.519-.75-1.186-.825-1.705H11.55c-.075.519-.3 1.112-.825 1.705-.6.668-1.5.964-2.624.964-.675 0-1.2.149-1.5.52-.525.518-.45 1.334-.45 1.408v5.487c1.95 1.038 3.15 3.114 3.15 5.264 0 2.224-1.2 4.226-3.15 5.264v15.348h-.15z"/><path d="M12.75 58.5c-.45 0-.75-.307-.75-.766V38.266c0-.46.3-.766.75-.766s.75.307.75.766v19.39c0 .46-.3.844-.75.844z"/><path d="M26.411 60H2.089C.969 60 0 58.991 0 57.75s.97-2.25 2.089-2.25h24.322c1.12 0 2.089 1.009 2.089 2.25S27.53 60 26.411 60zM2.089 57.13c-.298 0-.597.31-.597.698 0 .388.299.698.597.698h24.322c.298 0 .597-.31.597-.698 0-.388-.299-.699-.597-.699H2.089zM9.03 13.5c-.816 0-1.34-1.161-1.399-1.29-.175-.387-.175-1.033 0-1.42s.466-.387.64 0c0 0 .35.775.758.775.233 0 .466-.259.7-.775.174-.387.465-.387.64 0s.175 1.033 0 1.42c-.408.774-.874 1.29-1.34 1.29zM17.97 13.5c-.465 0-.931-.387-1.339-1.29-.175-.387-.175-1.033 0-1.42s.466-.387.64 0c.234.516.467.775.7.775.408 0 .757-.775.757-.775.175-.387.466-.387.64 0 .176.387.176 1.033 0 1.42-.057 0-.582 1.161-1.397 1.29z"/></g></svg>
